img/pointer.svg

<svg fill="none" height="40" viewBox="0 0 40 40" width="40" xmlns="http://www.w3.org/2000/svg"><path d="m3.36569 12.5041c-.3-.4-.6-1.1-1.2-2-.3-.5-1.200004-1.50005-1.500004-1.90005-.2-.4-.200001-.6-.100001-1 .1-.6.699995-1.1 1.399995-1.1.5 0 1.00001.4 1.40001.7.2.2.5.6.7.8s.19999.3.39999.5c.2.3.30001.5.20001.1-.1-.5-.2-1.3-.4-2.1-.1-.6-.20001-.7-.30001-1.1-.1-.5-.19999-.8-.29999-1.3-.1-.3-.2-1.1-.3-1.5-.1-.5-.1-1.4.3-1.799998.3-.3.89999-.4 1.29999-.2.5.3.80001.999998.90001 1.299998.2.5.4 1.2.5 2 .2 1 .5 2.5.5 2.8 0-.4-.1-1.1 0-1.5.1-.3.3-.7.7-.8.3-.1.59999-.1.89999-.1.30001.1.60001.3.80001.5.4.6.4 1.9.4 1.8.1-.4.1-1.2.29999-1.6.10002-.2.50002-.4.70002-.5.3-.1.7-.1 1 0 .2 0 .6.3.7.5.2.3.3 1.3.4 1.7 0 .1.1-.4.3-.7.4-.6 1.8-.8 1.9.6v1.1 1.2c0 .4-.1 1.30005-.2 1.70005-.1.3-.4 1-.7 1.4 0 0-1.1 1.2-1.2 1.8s-.1.6-.1 1 .1.9.1.9-.8.1-1.2 0-.9.2-1-.1c-.2-.3-.5-.3-.70002 0-.19999.4-.7.1-1.1.1-.7.1-2.09999 0-3.09999 0 0 0 .2-1-.2-1.4-.3-.3-.8-.8-1.10001-1.1z" fill="#70a582"/><path d="m2.16569 10.5041c.6.9.9 1.6 1.2 2l1.09999.7 1.10001 1.1c.4.4.2 1.4.2 1.4h3.09999 2.80002 1.2s-.1-.5-.1-.9v-.0001c0-.3999 0-.4.1-.9999.1-.6 1.2-1.8 1.2-1.8.3-.4.6-1.1.7-1.4.1-.4.2-1.30005.2-1.70005v-1.2-1.1c-.1-1.4-1.5-1.2-1.9-.6-.2.3-.3.8-.3.7-.1-.4-.2-1.4-.4-1.7-.1-.2-.5-.5-.7-.5-.3-.1-.7-.1-1 0-.2.1-.6.3-.70002.5-.19999.4-.19999 1.2-.29999 1.6 0 .1 0-1.2-.4-1.8-.2-.2-.5-.4-.80001-.5-.3 0-.59999 0-.89999.1-.4.1-.6.5-.7.8-.1.4 0 1.1 0 1.5 0-.3-.3-1.79998-.5-2.79998v-.00002c-.1-.8-.3-1.5-.5-2-.1-.3-.40001-.999998-.90001-1.299998-.4-.2-.99999-.1-1.29999.2-.4.399998-.4 1.299998-.3 1.799998.1.4.2 1.2.3 1.5.1.5.19999.8.29999 1.3.1.4.20001.5.30001 1.1.2.8.3 1.6.4 2.1.1.4-.00001.2-.20001-.1-.2-.2-.19999-.3-.39999-.5s-.5-.6-.7-.8c-.4-.3-.90001-.7-1.40001-.7-.7 0-1.299995.5-1.399995 1.1-.1.4-.099999.6.100001 1 .3.4 1.200004 1.40005 1.500004 1.90005z" stroke="#fdfcf7" stroke-linecap="round" stroke-linejoin="round"/></svg>

<svg width="40" height="40" viewBox="0 0 40 40" fill="none" xmlns="http://www.w3.org/2000/svg">
<path d="M3.36569 12.5041C3.06569 12.1041 2.76569 11.4041 2.16569 10.5041C1.86569 10.0041 0.965686 9.00405 0.665686 8.60405C0.465686 8.20405 0.465685 8.00405 0.565685 7.60405C0.665685 7.00405 1.26568 6.50405 1.96568 6.50405C2.46568 6.50405 2.96569 6.90405 3.36569 7.20405C3.56569 7.40405 3.86569 7.80405 4.06569 8.00405C4.26569 8.20405 4.26568 8.30405 4.46568 8.50405C4.66568 8.80405 4.76569 9.00405 4.66569 8.60405C4.56569 8.10405 4.46569 7.30405 4.26569 6.50405C4.16569 5.90405 4.06568 5.80405 3.96568 5.40405C3.86568 4.90405 3.76569 4.60405 3.66569 4.10405C3.56569 3.80405 3.46569 3.00405 3.36569 2.60405C3.26569 2.10405 3.26569 1.20405 3.66569 0.804052C3.96569 0.504052 4.56568 0.404052 4.96568 0.604052C5.46568 0.904052 5.76569 1.60405 5.86569 1.90405C6.06569 2.40405 6.26569 3.10405 6.36569 3.90405C6.56569 4.90405 6.86569 6.40405 6.86569 6.70405C6.86569 6.30405 6.76569 5.60405 6.86569 5.20405C6.96569 4.90405 7.16569 4.50405 7.56569 4.40405C7.86569 4.30405 8.16568 4.30405 8.46568 4.30405C8.76569 4.40405 9.06569 4.60405 9.26569 4.80405C9.66569 5.40405 9.66569 6.70405 9.66569 6.60405C9.76569 6.20405 9.76569 5.40405 9.96568 5.00405C10.0657 4.80405 10.4657 4.60405 10.6657 4.50405C10.9657 4.40405 11.3657 4.40405 11.6657 4.50405C11.8657 4.50405 12.2657 4.80405 12.3657 5.00405C12.5657 5.30405 12.6657 6.30405 12.7657 6.70405C12.7657 6.80405 12.8657 6.30405 13.0657 6.00405C13.4657 5.40405 14.8657 5.20405 14.9657 6.60405C14.9657 7.30405 14.9657 7.20405 14.9657 7.70405C14.9657 8.20405 14.9657 8.50405 14.9657 8.90405C14.9657 9.30405 14.8657 10.2041 14.7657 10.6041C14.6657 10.9041 14.3657 11.6041 14.0657 12.0041C14.0657 12.0041 12.9657 13.2041 12.8657 13.8041C12.7657 14.4041 12.7657 14.4041 12.7657 14.8041C12.7657 15.2041 12.8657 15.7041 12.8657 15.7041C12.8657 15.7041 12.0657 15.8041 11.6657 15.7041C11.2657 15.6041 10.7657 15.9041 10.6657 15.6041C10.4657 15.3041 10.1657 15.3041 9.96568 15.6041C9.76569 16.0041 9.26568 15.7041 8.86568 15.7041C8.16568 15.8041 6.76569 15.7041 5.76569 15.7041C5.76569 15.7041 5.96569 14.7041 5.56569 14.3041C5.26569 14.0041 4.76569 13.5041 4.46568 13.2041L3.36569 12.5041Z" fill="#70A582"/>
<path d="M2.16569 10.5041C2.76569 11.4041 3.06569 12.1041 3.36569 12.5041L4.46568 13.2041L5.56569 14.3041C5.96569 14.7041 5.76569 15.7041 5.76569 15.7041H8.86568H11.6657H12.8657C12.8657 15.7041 12.7657 15.2041 12.7657 14.8041V14.804C12.7657 14.4041 12.7657 14.404 12.8657 13.8041C12.9657 13.2041 14.0657 12.0041 14.0657 12.0041C14.3657 11.6041 14.6657 10.9041 14.7657 10.6041C14.8657 10.2041 14.9657 9.30405 14.9657 8.90405V7.70405V6.60405C14.8657 5.20405 13.4657 5.40405 13.0657 6.00405C12.8657 6.30405 12.7657 6.80405 12.7657 6.70405C12.6657 6.30405 12.5657 5.30405 12.3657 5.00405C12.2657 4.80405 11.8657 4.50405 11.6657 4.50405C11.3657 4.40405 10.9657 4.40405 10.6657 4.50405C10.4657 4.60405 10.0657 4.80405 9.96568 5.00405C9.76569 5.40405 9.76569 6.20405 9.66569 6.60405C9.66569 6.70405 9.66569 5.40405 9.26569 4.80405C9.06569 4.60405 8.76569 4.40405 8.46568 4.30405C8.16568 4.30405 7.86569 4.30405 7.56569 4.40405C7.16569 4.50405 6.96569 4.90405 6.86569 5.20405C6.76569 5.60405 6.86569 6.30405 6.86569 6.70405C6.86569 6.40405 6.56569 4.90407 6.36569 3.90407L6.36569 3.90405C6.26569 3.10405 6.06569 2.40405 5.86569 1.90405C5.76569 1.60405 5.46568 0.904052 4.96568 0.604052C4.56568 0.404052 3.96569 0.504052 3.66569 0.804052C3.26569 1.20405 3.26569 2.10405 3.36569 2.60405C3.46569 3.00405 3.56569 3.80405 3.66569 4.10405C3.76569 4.60405 3.86568 4.90405 3.96568 5.40405C4.06568 5.80405 4.16569 5.90405 4.26569 6.50405C4.46569 7.30405 4.56569 8.10405 4.66569 8.60405C4.76569 9.00405 4.66568 8.80405 4.46568 8.50405C4.26568 8.30405 4.26569 8.20405 4.06569 8.00405C3.86569 7.80405 3.56569 7.40405 3.36569 7.20405C2.96569 6.90405 2.46568 6.50405 1.96568 6.50405C1.26568 6.50405 0.665685 7.00405 0.565685 7.60405C0.465685 8.00405 0.465686 8.20405 0.665686 8.60405C0.965686 9.00405 1.86569 10.0041 2.16569 10.5041Z" stroke="#FDFCF7" stroke-linecap="round" stroke-linejoin="round"/>
</svg>
